design/eye-plus-outline.svg

<?xml version="1.0" encoding="UTF-8"?><!DOCTYPE svg PUBLIC "-//W3C//DTD SVG 1.1//EN" "http://www.w3.org/Graphics/SVG/1.1/DTD/svg11.dtd"><svg xmlns="http://www.w3.org/2000/svg" xmlns:xlink="http://www.w3.org/1999/xlink" version="1.1" width="24" height="24" viewBox="0 0 24 24"><path d="M12,4.5C7,4.5 2.73,7.61 1,12C2.73,16.39 7,19.5 12,19.5C12.36,19.5 12.72,19.5 13.08,19.45C13.03,19.13 13,18.82 13,18.5C13,18.14 13.04,17.78 13.1,17.42C12.74,17.46 12.37,17.5 12,17.5C8.24,17.5 4.83,15.36 3.18,12C4.83,8.64 8.24,6.5 12,6.5C15.76,6.5 19.17,8.64 20.82,12C20.7,12.24 20.56,12.45 20.43,12.68C21.09,12.84 21.72,13.11 22.29,13.5C22.56,13 22.8,12.5 23,12C21.27,7.61 17,4.5 12,4.5M12,9A3,3 0 0,0 9,12A3,3 0 0,0 12,15A3,3 0 0,0 15,12A3,3 0 0,0 12,9M18,14.5V17.5H15V19.5H18V22.5H20V19.5H23V17.5H20V14.5H18Z" /></svg>

<?xml version="1.0" encoding="utf-8"?>
<!-- Generator: Adobe Illustrator 23.0.3, SVG Export Plug-In . SVG Version: 6.00 Build 0)  -->
<svg version="1.1" id="Layer_1" xmlns="http://www.w3.org/2000/svg" xmlns:xlink="http://www.w3.org/1999/xlink" x="0px" y="0px"
	 viewBox="0 0 24 24" style="enable-background:new 0 0 24 24;" xml:space="preserve">
<style type="text/css">
	.st0{fill:url(#SVGID_1_);}
</style>
<linearGradient id="SVGID_1_" gradientUnits="userSpaceOnUse" x1="3.7018" y1="7.956" x2="23.4784" y2="17.5938">
	<stop  offset="0" style="stop-color:#8E2DE2"/>
	<stop  offset="1" style="stop-color:#4A00E0"/>
</linearGradient>
<path class="st0" d="M12,4.5C7,4.5,2.7,7.6,1,12c1.7,4.4,6,7.5,11,7.5c0.4,0,0.7,0,1.1,0c-0.1-0.3-0.1-0.6-0.1-1
	c0-0.4,0-0.7,0.1-1.1c-0.4,0-0.7,0.1-1.1,0.1c-3.8,0-7.2-2.1-8.8-5.5C4.8,8.6,8.2,6.5,12,6.5s7.2,2.1,8.8,5.5
	c-0.1,0.2-0.3,0.4-0.4,0.7c0.7,0.2,1.3,0.4,1.9,0.8c0.3-0.5,0.5-1,0.7-1.5C21.3,7.6,17,4.5,12,4.5 M12,9c-1.7,0-3,1.3-3,3s1.3,3,3,3
	s3-1.3,3-3S13.7,9,12,9 M18,14.5v3h-3v2h3v3h2v-3h3v-2h-3v-3H18z"/>
</svg>
